x-pack/platform/plugins/shared/content_connectors/public/assets/icons/outlook.svg

<svg width="64" height="64" viewBox="0 0 64 64" fill="none" xmlns="http://www.w3.org/2000/svg">
<g clip-path="url(#clip0_720_81329)">
<path d="M64 33.1758C64.0035 32.6754 63.7449 32.2096 63.3183 31.9479H63.3109L63.2841 31.933L41.1073 18.8056C41.0115 18.7409 40.9122 18.6817 40.8096 18.6285C39.9534 18.1867 38.9362 18.1867 38.08 18.6285C37.9774 18.6818 37.878 18.7409 37.7823 18.8056L15.6056 31.933L15.5788 31.9479C14.901 32.3694 14.6932 33.2606 15.1147 33.9383C15.2389 34.1381 15.4099 34.3044 15.613 34.4231L37.7898 47.5505C37.8859 47.6146 37.9852 47.6738 38.0875 47.7276C38.9437 48.1694 39.9609 48.1694 40.8171 47.7276C40.9194 47.6738 41.0187 47.6147 41.1148 47.5505L63.2916 34.4231C63.7346 34.1648 64.0051 33.6887 64 33.1758Z" fill="#0A2767"/>
<path d="M18.1909 24.4108H32.7442V37.751H18.1909V24.4108ZM61.0233 10.8502V4.74789C61.0582 3.22217 59.8506 1.95656 58.3249 1.92H20.5589C19.0332 1.95656 17.8255 3.22217 17.8605 4.74789V10.8502L40.186 16.8037L61.0233 10.8502Z" fill="#0364B8"/>
<path d="M17.8604 10.8502H32.7442V24.2456H17.8604V10.8502Z" fill="#0078D4"/>
<path d="M47.6279 10.8502H32.7442V24.2456L47.6279 37.6409H61.0232V24.2456L47.6279 10.8502Z" fill="#28A8EA"/>
<path d="M32.7442 24.2456H47.6278V37.6409H32.7442V24.2456Z" fill="#0078D4"/>
<path d="M32.7442 37.6409H47.6278V51.0362H32.7442V37.6409Z" fill="#0364B8"/>
<path d="M18.1909 37.751H32.7442V49.8783H18.1909V37.751Z" fill="#14447D"/>
<path d="M47.6279 37.6409H61.0232V51.0362H47.6279V37.6409Z" fill="#0078D4"/>
<path d="M63.3183 34.3412L63.29 34.3561L41.1133 46.8286C41.0165 46.8881 40.9183 46.9447 40.8156 46.9953C40.4389 47.1746 40.0298 47.2759 39.613 47.293L38.4014 46.5845C38.2991 46.5331 38.1997 46.476 38.1038 46.4133L15.6294 33.5866H15.6189L14.8837 33.1758V58.4245C14.8952 60.109 16.2696 61.4655 17.9542 61.4548H60.977C61.0023 61.4548 61.0247 61.4429 61.0515 61.4429C61.4073 61.4201 61.758 61.3469 62.0933 61.2256C62.2382 61.1642 62.378 61.0915 62.5115 61.0083C62.6113 60.9517 62.7824 60.8282 62.7824 60.8282C63.5449 60.264 63.9962 59.373 63.9999 58.4245V33.1758C63.9994 33.6587 63.7389 34.104 63.3183 34.3412Z" fill="url(#paint0_linear_720_81329)"/>
<path opacity="0.5" d="M62.8092 33.0761V34.624L39.6204 50.5897L15.613 33.597C15.613 33.5888 15.6063 33.5821 15.5981 33.5821L13.3953 32.2575V31.1412L14.3032 31.1263L16.2232 32.2277L16.2679 32.2426L16.4316 32.3468C16.4316 32.3468 38.9953 45.2212 39.0548 45.2509L39.9181 45.757C39.9925 45.7272 40.0669 45.6974 40.1562 45.6676C40.2009 45.6379 62.5562 33.0611 62.5562 33.0611L62.8092 33.0761Z" fill="#0A2767"/>
<path d="M63.3183 34.3412L63.29 34.3575L41.1133 46.8301C41.0165 46.8896 40.9183 46.9462 40.8156 46.9968C39.9543 47.4175 38.9471 47.4175 38.0859 46.9968C37.9839 46.9463 37.8846 46.8906 37.7882 46.8301L15.6115 34.3575L15.5848 34.3412C15.1566 34.109 14.8882 33.6628 14.8837 33.1758V58.4245C14.8944 60.1088 16.2684 61.4655 17.9526 61.4549C17.9527 61.4549 17.9527 61.4549 17.9528 61.4549H60.931C62.6152 61.4656 63.9893 60.1089 64 58.4247C64 58.4246 64 58.4246 64 58.4245V33.1758C63.9994 33.6587 63.739 34.104 63.3183 34.3412Z" fill="#1490DF"/>
<path opacity="0.1" d="M41.4362 46.6455L41.1043 46.8316C41.0082 46.8928 40.9088 46.949 40.8067 46.9998C40.441 47.1793 40.0434 47.2845 39.6368 47.3093L48.0744 57.2874L62.7929 60.8342C63.1962 60.5295 63.517 60.1289 63.7261 59.6688L41.4362 46.6455Z" fill="black"/>
<path opacity="0.05" d="M42.9395 45.8002L41.1043 46.8316C41.0082 46.8928 40.9088 46.949 40.8067 46.9998C40.441 47.1793 40.0434 47.2845 39.6368 47.3093L43.5899 58.2087L62.7973 60.8297C63.554 60.2616 63.9995 59.3707 63.9999 58.4245V58.0985L42.9395 45.8002Z" fill="black"/>
<path d="M17.9944 61.4549H60.9265C61.5871 61.4582 62.2314 61.2496 62.7646 60.8595L38.4 46.5875C38.2976 46.5362 38.1982 46.479 38.1023 46.4164L15.6279 33.5895H15.6175L14.8837 33.1758V58.3382C14.8821 60.0579 16.2747 61.4532 17.9944 61.4549C17.9944 61.4549 17.9944 61.4549 17.9944 61.4549Z" fill="#28A8EA"/>
<path opacity="0.1" d="M35.7209 16.5552V48.3021C35.7182 49.4152 35.0414 50.4157 34.0093 50.8324C33.6895 50.9698 33.3452 51.0407 32.9972 51.0407H14.8837V15.3153H17.8605V13.827H32.9972C34.5008 13.8327 35.7176 15.0515 35.7209 16.5552Z" fill="black"/>
<path opacity="0.2" d="M34.2326 18.0435V49.7904C34.2363 50.1499 34.1601 50.5058 34.0093 50.8322C33.596 51.851 32.6083 52.5195 31.5089 52.5245H14.8837V15.3153H31.5089C31.9407 15.311 32.3663 15.4187 32.7442 15.6279C33.6566 16.0876 34.2322 17.0219 34.2326 18.0435Z" fill="black"/>
<path opacity="0.2" d="M34.2325 18.0435V46.8137C34.2253 48.3167 33.0117 49.5348 31.5088 49.5478H14.8837V15.3153H31.5088C31.9407 15.311 32.3663 15.4187 32.7441 15.6279C33.6565 16.0876 34.2322 17.0219 34.2325 18.0435Z" fill="black"/>
<path opacity="0.2" d="M32.7442 18.0435V46.8137C32.7426 48.319 31.5257 49.5405 30.0205 49.5478H14.8837V15.3153H30.0205C31.5256 15.3161 32.745 16.5369 32.7442 18.042C32.7442 18.0425 32.7442 18.043 32.7442 18.0435Z" fill="black"/>
<path d="M2.72818 15.3153H30.016C31.5228 15.3153 32.7442 16.5368 32.7442 18.0435V45.3313C32.7442 46.838 31.5228 48.0595 30.016 48.0595H2.72818C1.22143 48.0595 0 46.838 0 45.3313V18.0435C0 16.5368 1.22147 15.3153 2.72818 15.3153Z" fill="url(#paint1_linear_720_81329)"/>
<path d="M8.52689 26.758C9.19929 25.3253 10.2846 24.1264 11.6436 23.3154C13.1485 22.4537 14.862 22.0242 16.5954 22.074C18.2019 22.0392 19.7872 22.4464 21.1781 23.2513C22.4858 24.0312 23.539 25.1738 24.2099 26.5406C24.9405 28.0467 25.3046 29.7042 25.2726 31.3779C25.308 33.127 24.9333 34.8601 24.1786 36.4383C23.4917 37.854 22.4051 39.0373 21.053 39.8422C19.6086 40.6718 17.9644 41.0897 16.2992 41.0508C14.6583 41.0904 13.0381 40.6785 11.6153 39.8601C10.2963 39.0792 9.22984 37.9353 8.54328 36.5648C7.80831 35.0805 7.43985 33.4417 7.46868 31.7856C7.43806 30.0514 7.79982 28.3327 8.52689 26.758ZM11.8489 34.8398C12.2074 35.7455 12.8154 36.531 13.6022 37.1051C14.4037 37.6653 15.3633 37.9543 16.3408 37.9297C17.3818 37.9709 18.4079 37.672 19.264 37.0783C20.0409 36.506 20.6328 35.7184 20.9667 34.813C21.3399 33.8019 21.524 32.7308 21.5099 31.6532C21.5215 30.5652 21.3483 29.4832 20.9979 28.4532C20.6884 27.5232 20.1155 26.7032 19.3488 26.0926C18.5142 25.4708 17.4908 25.1555 16.4509 25.1996C15.4523 25.1738 14.4711 25.465 13.6484 26.0316C12.8482 26.6082 12.2287 27.4006 11.8623 28.3163C11.0495 30.4151 11.0453 32.741 11.8504 34.8428L11.8489 34.8398Z" fill="white"/>
<path d="M47.6279 10.8502H61.0232V24.2456H47.6279V10.8502Z" fill="#50D9FF"/>
</g>
<defs>
<linearGradient id="paint0_linear_720_81329" x1="39.4418" y1="33.1758" x2="39.4418" y2="61.4548" gradientUnits="userSpaceOnUse">
<stop stop-color="#35B8F1"/>
<stop offset="1" stop-color="#28A8EA"/>
</linearGradient>
<linearGradient id="paint1_linear_720_81329" x1="5.68833" y1="13.1836" x2="27.0558" y2="50.1913" gradientUnits="userSpaceOnUse">
<stop stop-color="#1784D9"/>
<stop offset="0.5" stop-color="#107AD5"/>
<stop offset="1" stop-color="#0A63C9"/>
</linearGradient>
<clipPath id="clip0_720_81329">
<rect width="64" height="59.5349" fill="white" transform="translate(0 1.92)"/>
</clipPath>
</defs>
</svg>

<svg xmlns="http://www.w3.org/2000/svg" width="64" height="64" fill="none"><g clip-path="url(#a)"><path fill="#0A2767" d="M64 33.176c.004-.5-.255-.966-.682-1.228h-.007l-.027-.015-22.177-13.127a2.976 2.976 0 0 0-3.325 0L15.606 31.933l-.027.015a1.445 1.445 0 0 0 .034 2.475L37.79 47.55q.144.097.297.178a2.98 2.98 0 0 0 3.028-.178l22.177-13.127c.443-.258.713-.734.708-1.247"/><path fill="#0364B8" d="M18.19 24.41h14.554v13.341H18.191zm42.833-13.56V4.748a2.765 2.765 0 0 0-2.698-2.828H20.559a2.765 2.765 0 0 0-2.699 2.828v6.102l22.326 5.954z"/><path fill="#0078D4" d="M17.86 10.85h14.884v13.396H17.86z"/><path fill="#28A8EA" d="M47.628 10.85H32.744v13.396L47.628 37.64h13.395V24.246z"/><path fill="#0078D4" d="M32.744 24.246h14.884V37.64H32.744z"/><path fill="#0364B8" d="M32.744 37.64h14.884v13.396H32.744z"/><path fill="#14447D" d="M18.19 37.751h14.554v12.127H18.191z"/><path fill="#0078D4" d="M47.628 37.64h13.395v13.396H47.628z"/><path fill="url(#b)" d="m63.318 34.341-.028.015L41.113 46.83q-.144.09-.297.166c-.377.18-.786.28-1.203.298l-1.212-.709a3 3 0 0 1-.297-.17L15.629 33.586h-.01l-.735-.411v25.249a3.05 3.05 0 0 0 3.07 3.03h43.023c.025 0 .048-.012.075-.012a3.8 3.8 0 0 0 1.041-.217q.218-.093.418-.218A3.005 3.005 0 0 0 64 58.424V33.177c0 .483-.26.928-.68 1.165"/><path fill="#0A2767" d="M62.81 33.076v1.548L39.62 50.59 15.613 33.597a.015.015 0 0 0-.015-.015l-2.203-1.325v-1.116l.908-.015 1.92 1.102.045.015.164.104S38.995 45.22 39.055 45.25l.863.506c.075-.03.149-.06.238-.09.045-.03 22.4-12.606 22.4-12.606z" opacity=".5"/><path fill="#1490DF" d="m63.318 34.341-.028.017L41.113 46.83q-.144.09-.297.167a3.11 3.11 0 0 1-3.028-.167L15.612 34.358l-.027-.017a1.34 1.34 0 0 1-.701-1.165v25.249a3.05 3.05 0 0 0 3.069 3.03H60.93A3.05 3.05 0 0 0 64 58.425v-25.25c0 .484-.261.929-.682 1.166"/><path fill="#000" d="m41.436 46.646-.332.186a3.08 3.08 0 0 1-1.468.478l8.438 9.977 14.719 3.547c.403-.305.724-.705.933-1.165z" opacity=".1"/><path fill="#000" d="m42.94 45.8-1.836 1.032a3.08 3.08 0 0 1-1.468.478l3.954 10.899 19.207 2.62A3.01 3.01 0 0 0 64 58.426v-.326z" opacity=".05"/><path fill="#28A8EA" d="M17.994 61.455h42.933a3.1 3.1 0 0 0 1.838-.596L38.4 46.588a3 3 0 0 1-.298-.17L15.628 33.59h-.01l-.734-.414v25.162a3.114 3.114 0 0 0 3.11 3.117"/><path fill="#000" d="M35.72 16.555v31.747a2.74 2.74 0 0 1-1.71 2.53c-.32.138-.665.209-1.013.209H14.884V15.315h2.976v-1.488h15.137a2.734 2.734 0 0 1 2.724 2.728" opacity=".1"/><path fill="#000" d="M34.233 18.044V49.79c.003.36-.073.716-.224 1.042a2.71 2.71 0 0 1-2.5 1.693H14.884v-37.21h16.625a2.5 2.5 0 0 1 1.235.313 2.71 2.71 0 0 1 1.489 2.416" opacity=".2"/><path fill="#000" d="M34.233 18.044v28.77a2.747 2.747 0 0 1-2.724 2.734H14.884V15.315h16.625c.432-.004.857.104 1.235.313a2.71 2.71 0 0 1 1.489 2.416" opacity=".2"/><path fill="#000" d="M32.744 18.044v28.77a2.737 2.737 0 0 1-2.724 2.734H14.885V15.315H30.02a2.725 2.725 0 0 1 2.724 2.727z" opacity=".2"/><path fill="url(#c)" d="M2.728 15.315h27.288a2.73 2.73 0 0 1 2.728 2.729V45.33a2.73 2.73 0 0 1-2.728 2.728H2.728A2.73 2.73 0 0 1 0 45.332V18.044a2.73 2.73 0 0 1 2.728-2.729"/><path fill="#fff" d="M8.527 26.758a7.94 7.94 0 0 1 3.117-3.443 9.4 9.4 0 0 1 4.951-1.241 8.77 8.77 0 0 1 4.583 1.177 7.87 7.87 0 0 1 3.032 3.29 10.6 10.6 0 0 1 1.063 4.837c.035 1.749-.34 3.482-1.094 5.06a8.05 8.05 0 0 1-3.126 3.404 9.1 9.1 0 0 1-4.754 1.209 8.96 8.96 0 0 1-4.684-1.19 8 8 0 0 1-3.072-3.296 10.36 10.36 0 0 1-1.074-4.78 11.5 11.5 0 0 1 1.058-5.027m3.322 8.082a5.15 5.15 0 0 0 1.753 2.265 4.58 4.58 0 0 0 2.739.825 4.8 4.8 0 0 0 2.923-.852 4.93 4.93 0 0 0 1.703-2.265 8.8 8.8 0 0 0 .543-3.16 9.6 9.6 0 0 0-.512-3.2 5.06 5.06 0 0 0-1.65-2.36 4.53 4.53 0 0 0-2.897-.893 4.73 4.73 0 0 0-2.803.832 5.2 5.2 0 0 0-1.786 2.284 9.08 9.08 0 0 0-.012 6.527z"/><path fill="#50D9FF" d="M47.628 10.85h13.395v13.396H47.628z"/></g><defs><linearGradient id="b" x1="39.442" x2="39.442" y1="33.176" y2="61.455" gradientUnits="userSpaceOnUse"><stop stop-color="#35B8F1"/><stop offset="1" stop-color="#28A8EA"/></linearGradient><linearGradient id="c" x1="5.688" x2="27.056" y1="13.184" y2="50.191" gradientUnits="userSpaceOnUse"><stop stop-color="#1784D9"/><stop offset=".5" stop-color="#107AD5"/><stop offset="1" stop-color="#0A63C9"/></linearGradient><clipPath id="a"><path fill="#fff" d="M0 1.92h64v59.535H0z"/></clipPath></defs></svg>
